icon-themes/breeze_svg/cmd/sc_aligndown.svg

<svg viewBox="0 0 16 16" xmlns="http://www.w3.org/2000/svg"><path d="m9 2v10h5v-10zm1 1h3v8h-3zm-8 4v5h5v-5zm1 1h3v3h-3zm-1 5v1h12v-1z" fill="#4d4d4d"/></svg>

<svg xmlns="http://www.w3.org/2000/svg" viewBox="0 0 16 16">
 <path 
     style="fill:#4d4d4d" 
     d="M 9 2 L 9 12 L 14 12 L 14 2 L 9 2 z M 10 3 L 13 3 L 13 11 L 10 11 L 10 3 z M 2 7 L 2 12 L 7 12 L 7 7 L 2 7 z M 3 8 L 6 8 L 6 11 L 3 11 L 3 8 z M 2 13 L 2 14 L 14 14 L 14 13 L 2 13 z "
     />
 </svg>
